imgs/logo-white.svg

<svg width="208" height="26" viewBox="0 0 208 26" fill="none" xmlns="http://www.w3.org/2000/svg">
<path d="M50.202 24.8383C45.2207 24.8383 41.866 21.6531 41.866 17.6884H45.9662C46.0001 19.5183 47.7283 21.1787 50.3036 21.1787C52.6756 21.1787 54.2005 19.7216 54.2005 17.8917C54.2005 16.2652 52.8112 15.3164 50.8458 14.7742L47.9316 13.961C42.9165 12.6733 42.0355 9.65747 42.0355 7.62432C42.0355 3.49024 45.6612 0.677717 49.9648 0.677717C54.2344 0.677717 57.5891 3.32082 57.5891 7.69209H53.4889C53.4889 5.7606 52.0318 4.37128 49.8631 4.37128C47.8638 4.37128 46.2034 5.72671 46.2034 7.55655C46.2034 8.20038 46.4067 9.55582 49.0837 10.2674L51.8624 11.0807C55.522 12.0973 58.3346 13.9949 58.3346 17.7223C58.3346 21.9919 54.7765 24.8383 50.202 24.8383Z" fill="white"/>
<path d="M66.1744 8.60701H69.5291V11.7245H66.1744V24.4317H62.2436V11.7245H59.3972V8.60701H62.2436V2.77864H66.1744V8.60701Z" fill="white"/>
<path d="M79.9898 8.20038C80.9386 8.20038 81.9551 8.4037 82.5651 8.74255L81.7857 12.47C80.8708 11.9956 80.0575 11.8939 79.4815 11.8939C76.9061 11.8939 75.4829 14.4693 75.4829 18.9083V24.4317H71.5183V8.60701H75.449V11.9956C76.2962 9.3525 78.0244 8.20038 79.9898 8.20038Z" fill="white"/>
<path d="M95.2154 17.0785V8.60701H99.1461V24.4317H95.2154V21.958C94.4021 23.9573 91.8945 24.8383 90.3019 24.8383C86.2356 24.8383 83.9653 22.0936 83.9653 17.4851V8.60701H87.896V17.3157C87.896 19.8571 89.4209 21.1787 91.1829 21.1787C92.9789 21.1787 95.2154 20.1621 95.2154 17.0785Z" fill="white"/>
<path d="M110.399 24.8383C105.824 24.8383 101.792 21.5175 101.792 16.5024C101.792 11.4873 105.824 8.20038 110.399 8.20038C113.144 8.20038 115.38 9.42027 116.837 11.2501L114.059 13.4527C113.245 12.47 111.89 11.8601 110.467 11.8601C107.722 11.8601 105.757 13.8254 105.757 16.5024C105.757 19.1455 107.722 21.1787 110.467 21.1787C111.89 21.1787 113.245 20.5687 114.059 19.586L116.837 21.7886C115.38 23.6185 113.144 24.8383 110.399 24.8383Z" fill="white"/>
<path d="M124.552 8.60701H127.907V11.7245H124.552V24.4317H120.621V11.7245H117.775V8.60701H120.621V2.77864H124.552V8.60701Z" fill="white"/>
<path d="M138.74 8.20038C143.179 8.20038 146.771 11.6906 146.771 16.5024C146.771 21.3142 143.179 24.8383 138.74 24.8383C136.097 24.8383 133.59 23.4829 132.437 21.3142V24.4317H130.269V0H132.437V11.6906C133.623 9.52193 136.063 8.20038 138.74 8.20038ZM138.571 22.7713C141.925 22.7713 144.636 19.9927 144.636 16.4685C144.636 12.9783 141.925 10.2674 138.571 10.2674C135.419 10.2674 132.437 12.7411 132.437 16.5702C132.437 20.2299 135.284 22.7713 138.571 22.7713Z" fill="white"/>
<path d="M157.284 24.8383C152.777 24.8383 149.016 21.5175 149.016 16.5024C149.016 11.4873 152.777 8.20038 157.284 8.20038C161.791 8.20038 165.586 11.4873 165.586 16.5024C165.586 21.5175 161.791 24.8383 157.284 24.8383ZM157.284 22.7713C160.605 22.7713 163.417 20.2299 163.417 16.5024C163.417 12.775 160.605 10.2674 157.284 10.2674C153.929 10.2674 151.184 12.775 151.184 16.5024C151.184 20.2299 153.929 22.7713 157.284 22.7713Z" fill="white"/>
<path d="M176.056 24.8383C171.549 24.8383 167.788 21.5175 167.788 16.5024C167.788 11.4873 171.549 8.20038 176.056 8.20038C180.563 8.20038 184.358 11.4873 184.358 16.5024C184.358 21.5175 180.563 24.8383 176.056 24.8383ZM176.056 22.7713C179.377 22.7713 182.189 20.2299 182.189 16.5024C182.189 12.775 179.377 10.2674 176.056 10.2674C172.701 10.2674 169.956 12.775 169.956 16.5024C169.956 20.2299 172.701 22.7713 176.056 22.7713Z" fill="white"/>
<path d="M192.117 24.8383C189.373 24.8383 186.628 23.2457 186.357 20.2299H188.356C188.593 21.5514 189.813 22.9069 192.117 22.9069C194.388 22.9069 195.777 21.7208 195.777 20.1282C195.777 18.8405 194.896 17.9934 193.269 17.5868L190.999 17.0446C188.763 16.5024 186.967 15.3503 186.967 12.7072C186.967 10.1319 189.169 8.20038 192.185 8.20038C194.828 8.20038 197.268 9.65747 197.37 12.5039H195.269C195.167 11.0807 193.778 10.1319 192.219 10.1319C190.389 10.1319 189.135 11.2501 189.135 12.7411C189.135 14.2321 190.423 14.8759 191.575 15.147L193.913 15.723C196.997 16.4685 197.946 18.3323 197.946 20.1621C197.946 22.9746 195.404 24.8383 192.117 24.8383Z" fill="white"/>
<path d="M204.374 8.60701H208V10.4707H204.374V24.4317H202.239V10.4707H199.359V8.60701H202.239V2.67698H204.374V8.60701Z" fill="white"/>
<path d="M27.491 1.65665H12.9603C12.3673 1.65665 12.2402 1.69936 11.9014 2.04106L0.381216 12.8035C0.0423573 13.1452 0 13.2733 0 13.8713V20.1927C0 23.7795 1.77901 25.5734 5.33703 25.5734H19.8677C20.4597 25.5734 20.5867 25.5307 20.9256 25.189L32.4468 14.4266C32.7846 14.0849 32.8269 13.9567 32.8269 13.3588V7.0384C32.8269 3.45057 31.049 1.65665 27.491 1.65665Z" fill="#F67ACB"/>
</svg>

<svg xmlns="http://www.w3.org/2000/svg" width="208" height="26" fill="none"><path fill="#fff" d="M50.202 24.838c-4.981 0-8.336-3.185-8.336-7.15h4.1c.034 1.83 1.762 3.49 4.338 3.49 2.372 0 3.896-1.456 3.896-3.286 0-1.627-1.389-2.576-3.354-3.118l-2.914-.813c-5.016-1.288-5.897-4.304-5.897-6.337 0-4.134 3.626-6.946 7.93-6.946 4.27 0 7.624 2.643 7.624 7.014h-4.1c0-1.931-1.457-3.32-3.626-3.32-2 0-3.66 1.355-3.66 3.185 0 .643.204 1.999 2.88 2.71l2.78.814c3.659 1.016 6.472 2.914 6.472 6.641 0 4.27-3.559 7.116-8.133 7.116M66.174 8.607h3.355v3.118h-3.355v12.707h-3.93V11.725h-2.847V8.607h2.847V2.779h3.93zM79.99 8.2c.949 0 1.965.204 2.575.543l-.78 3.727a4.95 4.95 0 0 0-2.303-.576c-2.576 0-4 2.575-4 7.014v5.524h-3.964V8.607h3.931v3.389c.847-2.644 2.575-3.796 4.54-3.796M95.215 17.079V8.606h3.931v15.825h-3.93v-2.474c-.814 2-3.322 2.88-4.914 2.88-4.066 0-6.337-2.744-6.337-7.353V8.607h3.931v8.709c0 2.541 1.525 3.863 3.287 3.863 1.796 0 4.032-1.017 4.032-4.1M110.399 24.838c-4.575 0-8.607-3.32-8.607-8.336 0-5.015 4.032-8.302 8.607-8.302 2.745 0 4.981 1.22 6.438 3.05l-2.778 2.203c-.814-.983-2.169-1.593-3.592-1.593-2.745 0-4.71 1.965-4.71 4.642 0 2.643 1.965 4.677 4.71 4.677 1.423 0 2.778-.61 3.592-1.593l2.778 2.203c-1.457 1.83-3.693 3.05-6.438 3.05M124.552 8.607h3.355v3.118h-3.355v12.707h-3.931V11.725h-2.846V8.607h2.846V2.779h3.931zM138.74 8.2c4.439 0 8.031 3.49 8.031 8.302s-3.592 8.336-8.031 8.336c-2.643 0-5.15-1.355-6.303-3.524v3.118h-2.168V0h2.168v11.69c1.186-2.168 3.626-3.49 6.303-3.49m-.169 14.571c3.354 0 6.065-2.778 6.065-6.303 0-3.49-2.711-6.2-6.065-6.2-3.152 0-6.134 2.473-6.134 6.302 0 3.66 2.847 6.201 6.134 6.201M157.284 24.838c-4.507 0-8.268-3.32-8.268-8.336 0-5.015 3.761-8.302 8.268-8.302s8.302 3.287 8.302 8.302-3.795 8.336-8.302 8.336m0-2.067c3.321 0 6.133-2.541 6.133-6.269 0-3.727-2.812-6.235-6.133-6.235-3.355 0-6.1 2.508-6.1 6.235s2.745 6.27 6.1 6.27M176.056 24.838c-4.507 0-8.268-3.32-8.268-8.336 0-5.015 3.761-8.302 8.268-8.302s8.302 3.287 8.302 8.302-3.795 8.336-8.302 8.336m0-2.067c3.321 0 6.133-2.541 6.133-6.269 0-3.727-2.812-6.235-6.133-6.235-3.355 0-6.1 2.508-6.1 6.235s2.745 6.27 6.1 6.27M192.117 24.838c-2.744 0-5.489-1.592-5.76-4.608h1.999c.237 1.321 1.457 2.677 3.761 2.677 2.271 0 3.66-1.186 3.66-2.779 0-1.288-.881-2.135-2.508-2.541l-2.27-.542c-2.236-.543-4.032-1.695-4.032-4.338 0-2.575 2.202-4.507 5.218-4.507 2.643 0 5.083 1.457 5.185 4.304h-2.101c-.102-1.423-1.491-2.372-3.05-2.372-1.83 0-3.084 1.118-3.084 2.61 0 1.49 1.288 2.134 2.44 2.405l2.338.576c3.084.745 4.033 2.61 4.033 4.44 0 2.812-2.542 4.675-5.829 4.675M204.374 8.607H208v1.864h-3.626v13.96h-2.135v-13.96h-2.88V8.607h2.88v-5.93h2.135z"/><path fill="#F67ACB" d="M27.491 1.657h-14.53c-.594 0-.72.042-1.06.384L.381 12.804c-.339.341-.381.47-.381 1.067v6.322q0 5.38 5.337 5.38h14.53c.593 0 .72-.042 1.059-.384l11.52-10.762c.339-.342.38-.47.38-1.068v-6.32q.001-5.382-5.335-5.382"/></svg>
